modules/micon/icons/edge.svg

<svg width="1792" height="1792" viewBox="0 0 1792 1792" xmlns="http://www.w3.org/2000/svg"><path d="M69 795h1q16-126 58.5-241.5t115-217 167.5-176 223.5-117.5 276.5-43q231 0 414 105.5t294 303.5q104 187 104 442v188h-1125q1 111 53.5 192.5t136.5 122.5 189.5 57 213 3 208-46.5 173.5-84.5v377q-92 55-229.5 92t-312.5 38-316-53q-189-73-311.5-249t-124.5-372q-3-242 111-412t325-268q-48 60-78 125.5t-46 159.5h635q8-77-8-140t-47-101.5-70.5-66.5-80.5-41-75-20.5-56-8.5l-22-1q-135 5-259.5 44.5t-223.5 104.5-176 140.5-138 163.5z"/></svg>

<svg width="1792" height="1792" viewBox="0 0 1792 1792" xmlns="http://www.w3.org/2000/svg"><path d="M69 795h1q16-126 58.5-241.5t115-217 167.5-176T634.5 43 911 0q231 0 414 105.5T1619 409q104 187 104 442v188H598q1 111 53.5 192.5T788 1354t189.5 57 213 3 208-46.5T1572 1283v377q-92 55-229.5 92t-312.5 38-316-53q-189-73-311.5-249T278 1116q-3-242 111-412t325-268q-48 60-78 125.5T590 721h635q8-77-8-140t-47-101.5-70.5-66.5-80.5-41-75-20.5-56-8.5l-22-1q-135 5-259.5 44.5T383 491 207 631.5 69 795z"/></svg>
